static/logos/11ty.svg

<svg fill="none" xmlns="http://www.w3.org/2000/svg" viewBox="0 0 1160 966"><path d="M361.2 809.1c-9 0-13.5-12-13.5-36.1V177.9c0-11.5-2.3-16.9-7-16.2l-43.1 10.8c-7.9.7-11.8-7.2-11.8-23.7V97.1c0-14.3 4.3-22.4 12.9-24.2l142.2-36.6a19 19 0 014.8-.5c7.9 0 11.8 8.4 11.8 25.3v712c0 24.1-4.7 36.1-14 36.1l-82.3-.1v0zm368.3 1.1c-14.4 0-26.8-1-37.4-3a99.8 99.8 0 01-33.1-13.5 84 84 0 01-28.3-28.8 166.5 166.5 0 01-18-51.2c-4.6-21.9-7-47.9-7-78.1V359.4c0-7.2-2-10.8-5.9-10.8h-33.4c-9 0-13.5-8.6-13.5-25.8v-29.1c0-17.6 4.5-26.4 13.5-26.4h33.4c3.9 0 5.9-4.8 5.9-14.5l9.7-209.5c1.1-19 5.7-28.5 14-28.5h53.9c9 0 13.5 9.5 13.5 28.5v209.5c0 9.7 2.1 14.5 6.5 14.5H772c9 0 13.5 8.8 13.5 26.4v29.1c0 17.2-4.5 25.8-13.5 25.8h-68.9c-2.5 0-4.2.6-5.1 1.9-.9 1.2-1.3 4.2-1.3 8.9v277.9c0 20.8 1.3 38.2 4 52 2.7 13.8 6.6 24 11.8 30.4a41.4 41.4 0 0015.6 12.9 49.2 49.2 0 0019.1 3.2h38.2c9.7 0 14.5 6.7 14.5 19.9V788c0 14.7-5.2 22.1-15.6 22.1l-54.8.1v0zm206.7 64.6c8.2 0 15.4-6.7 21.5-20.2s9.2-32.6 9.2-57.4c0-5.8-3.6-25.7-10.8-59.8L850.5 298.5c-.7-5-1.1-9-1.1-11.9 0-12.9 2.7-19.4 8.1-19.4h65.2c5 0 9.1 1.7 12.4 5.1 3.3 3.4 5.8 10.3 7.5 20.7l70 370.5c1.4 4.3 2.3 6.5 2.7 6.5 1.4 0 2.2-2 2.2-5.9l54.9-369.5a47 47 0 016.7-21.8c3-3.8 6.9-5.7 11.6-5.7h45.2c6.1 0 9.2 7 9.2 21 0 3.2-.4 7.4-1.1 12.4l-95.9 499.3c-7.5 41.3-15.8 72.9-24.8 94.8-9 21.9-19 36.8-30.2 44.7a77.6 77.6 0 01-44.2 12.4h-5.4c-29.1 0-48.8-7.7-59.2-23.2-2.9-3.2-4.3-11.5-4.3-24.8 0-26.6 4.3-39.9 12.9-39.9.7 0 7.2 1.8 19.4 5.4 12.4 3.8 20.3 5.6 23.9 5.6v0zM90.2 810.1c-9 0-13.5-12-13.5-36.1V178.9c0-11.5-2.3-16.9-7-16.2l-43.1 10.8c-7.9.7-11.8-7.2-11.8-23.7V98.1c0-14.3 4.3-22.4 12.9-24.2L170 37.2a19 19 0 014.8-.5c7.9 0 11.8 8.4 11.8 25.3v712c0 24.1-4.7 36.1-14 36.1H90.2v0z" fill="#37322e" stroke="#37322e" stroke-width="28" stroke-miterlimit="10"/></svg>

<svg width="1160" height="966" viewBox="0 0 1160 966" fill="none" xmlns="http://www.w3.org/2000/svg">
<path d="M361.2 809.1C352.2 809.1 347.7 797.1 347.7 773V177.9C347.7 166.4 345.4 161 340.7 161.7C312.3 168.9 298 172.5 297.6 172.5C289.7 173.2 285.8 165.3 285.8 148.8V97.1C285.8 82.8 290.1 74.7 298.7 72.9L440.9 36.3C442 36 443.6 35.8 445.7 35.8C453.6 35.8 457.5 44.2 457.5 61.1V773.1C457.5 797.2 452.8 809.2 443.5 809.2L361.2 809.1V809.1ZM729.5 810.2C715.1 810.2 702.7 809.2 692.1 807.2C681.5 805.2 670.5 800.7 659 793.7C647.5 786.7 638.1 777.1 630.7 764.9C623.3 752.7 617.3 735.6 612.7 713.7C608.1 691.8 605.7 665.8 605.7 635.6V359.4C605.7 352.2 603.7 348.6 599.8 348.6H566.4C557.4 348.6 552.9 340 552.9 322.8V293.7C552.9 276.1 557.4 267.3 566.4 267.3H599.8C603.7 267.3 605.7 262.5 605.7 252.8L615.4 43.3C616.5 24.3 621.1 14.8 629.4 14.8H683.3C692.3 14.8 696.8 24.3 696.8 43.3V252.8C696.8 262.5 698.9 267.3 703.3 267.3H772C781 267.3 785.5 276.1 785.5 293.7V322.8C785.5 340 781 348.6 772 348.6H703.1C700.6 348.6 698.9 349.2 698 350.5C697.1 351.7 696.7 354.7 696.7 359.4V637.3C696.7 658.1 698 675.5 700.7 689.3C703.4 703.1 707.3 713.3 712.5 719.7C717.7 726.1 722.9 730.5 728.1 732.6C733.3 734.8 739.7 735.8 747.2 735.8H785.4C795.1 735.8 799.9 742.5 799.9 755.7V788C799.9 802.7 794.7 810.1 784.3 810.1L729.5 810.2V810.2ZM936.2 874.8C944.4 874.8 951.6 868.1 957.7 854.6C963.8 841.1 966.9 822 966.9 797.2C966.9 791.4 963.3 771.5 956.1 737.4L850.5 298.5C849.8 293.5 849.4 289.5 849.4 286.6C849.4 273.7 852.1 267.2 857.5 267.2H922.7C927.7 267.2 931.8 268.9 935.1 272.3C938.4 275.7 940.9 282.6 942.6 293L1012.6 663.5C1014 667.8 1014.9 670 1015.3 670C1016.7 670 1017.5 668 1017.5 664.1L1072.4 294.6C1073.8 283.8 1076.1 276.6 1079.1 272.8C1082.1 269 1086 267.1 1090.7 267.1H1135.9C1142 267.1 1145.1 274.1 1145.1 288.1C1145.1 291.3 1144.7 295.5 1144 300.5L1048.1 799.8C1040.6 841.1 1032.3 872.7 1023.3 894.6C1014.3 916.5 1004.3 931.4 993.1 939.3C982 947.2 967.3 951.3 948.9 951.7H943.5C914.4 951.7 894.7 944 884.3 928.5C881.4 925.3 880 917 880 903.7C880 877.1 884.3 863.8 892.9 863.8C893.6 863.8 900.1 865.6 912.3 869.2C924.7 873 932.6 874.8 936.2 874.8V874.8Z" fill="#37322e" stroke="#37322e" stroke-width="28" stroke-miterlimit="10"/>
<path d="M90.2001 810.1C81.2001 810.1 76.7001 798.1 76.7001 774V178.9C76.7001 167.4 74.4001 162 69.7001 162.7C41.3001 169.9 27.0001 173.5 26.6001 173.5C18.7001 174.2 14.8 166.3 14.8 149.8V98.1C14.8 83.8 19.1 75.7 27.7 73.9L170 37.2C171.1 36.9 172.7 36.7 174.8 36.7C182.7 36.7 186.6 45.1 186.6 62V774C186.6 798.1 181.9 810.1 172.6 810.1H90.2001V810.1Z" fill="#37322e" stroke="#37322e" stroke-width="28" stroke-miterlimit="10"/>
</svg>
